flaticon/education/writing-1.svg

<svg xmlns="http://www.w3.org/2000/svg" width="32" height="32" viewBox="0 0 24 24">
    <path d="M 23.554688 2.601562 L 23.117188 2.28125 C 22.714844 1.960938 22.15625 2.042969 21.875 2.441406 L 21.203125 3.320312 L 21.15625 3.28125 C 21.035156 3.203125 20.957031 3.203125 20.835938 3.203125 C 20.714844 3.203125 20.636719 3.28125 20.554688 3.359375 L 20.40625 3.5625 L 18.957031 3.203125 C 18.835938 3.160156 18.636719 3.242188 18.558594 3.359375 L 17.675781 4.535156 L 17.675781 4.023438 C 17.679688 3.976562 17.675781 3.933594 17.660156 3.890625 C 17.648438 3.835938 17.617188 3.789062 17.578125 3.746094 C 17.570312 3.738281 17.566406 3.730469 17.558594 3.722656 L 13.957031 0.121094 C 13.949219 0.113281 13.941406 0.105469 13.933594 0.0976562 C 13.890625 0.0585938 13.84375 0.03125 13.789062 0.015625 C 13.746094 0.00390625 13.699219 -0.00390625 13.65625 0 L 0.476562 0 C 0.238281 0 0.078125 0.160156 0.078125 0.402344 L 0.078125 23.601562 C 0.078125 23.839844 0.238281 24 0.476562 24 L 17.277344 24 C 17.515625 24 17.675781 23.839844 17.675781 23.601562 L 17.675781 12.78125 L 23.234375 5.441406 C 23.355469 5.28125 23.316406 5 23.15625 4.882812 L 23.0625 4.804688 L 23.757812 3.839844 C 24.035156 3.441406 23.957031 2.882812 23.554688 2.601562 Z M 18.996094 4.042969 L 19.902344 4.253906 L 17.675781 7.277344 L 17.675781 5.808594 Z M 14.796875 15.082031 L 13.558594 14.242188 L 14.046875 13.578125 L 15.226562 14.511719 Z M 15.710938 13.871094 L 14.519531 12.933594 L 14.980469 12.308594 L 16.203125 13.222656 Z M 13.207031 14.976562 L 14.214844 15.734375 L 12.835938 16.679688 L 12.6875 16.566406 Z M 16.683594 12.585938 L 15.457031 11.664062 L 15.933594 11.015625 L 17.183594 11.929688 Z M 17.664062 11.289062 L 16.40625 10.371094 L 16.882812 9.726562 L 18.15625 10.640625 Z M 16.316406 3.601562 L 14.078125 3.601562 L 14.078125 1.363281 Z M 16.875 23.199219 L 0.878906 23.199219 L 0.878906 0.800781 L 13.277344 0.800781 L 13.277344 4 C 13.277344 4.242188 13.4375 4.402344 13.675781 4.402344 L 16.875 4.402344 L 16.875 5.601562 L 16.15625 6.5625 C 16.035156 6.722656 16.078125 7 16.238281 7.121094 C 16.316406 7.160156 16.398438 7.199219 16.476562 7.199219 C 16.597656 7.199219 16.714844 7.160156 16.757812 7.042969 L 16.875 6.878906 L 16.875 8.359375 L 12.636719 14.082031 C 12.636719 14.121094 12.597656 14.160156 12.597656 14.199219 L 11.796875 16.601562 C 11.757812 16.753906 11.832031 16.910156 11.945312 17.027344 L 11.71875 17.359375 C 11.597656 17.558594 11.636719 17.800781 11.835938 17.921875 C 11.917969 17.960938 11.996094 18 12.078125 18 C 12.195312 18 12.316406 17.960938 12.398438 17.800781 L 12.59375 17.515625 L 12.597656 17.519531 C 12.675781 17.558594 12.757812 17.601562 12.835938 17.601562 C 12.917969 17.601562 12.996094 17.5625 13.035156 17.5625 L 15.117188 16.121094 C 15.128906 16.109375 15.136719 16.097656 15.148438 16.085938 L 15.15625 16.082031 C 15.195312 16.082031 15.195312 16.039062 15.238281 16 L 16.875 13.835938 Z M 18.707031 10.066406 L 17.347656 9.101562 L 20.957031 4.203125 L 22.316406 5.28125 Z M 23.035156 3.363281 L 22.375 4.257812 L 21.820312 3.8125 L 22.476562 2.921875 C 22.515625 2.882812 22.554688 2.882812 22.597656 2.921875 L 23.035156 3.242188 C 23.078125 3.28125 23.078125 3.320312 23.035156 3.363281 Z M 23.035156 3.363281"/>
    <path d="M8.476562 7.601562L3.675781 7.601562C3.4375 7.601562 3.277344 7.761719 3.277344 8 3.277344 8.242188 3.4375 8.402344 3.675781 8.402344L8.476562 8.402344C8.71875 8.402344 8.878906 8.242188 8.878906 8 8.878906 7.761719 8.71875 7.601562 8.476562 7.601562zM8.476562 12.402344L3.675781 12.402344C3.4375 12.402344 3.277344 12.5625 3.277344 12.800781 3.277344 13.039062 3.4375 13.199219 3.675781 13.199219L8.476562 13.199219C8.71875 13.199219 8.878906 13.039062 8.878906 12.800781 8.878906 12.5625 8.71875 12.402344 8.476562 12.402344zM8.476562 17.199219L3.675781 17.199219C3.4375 17.199219 3.277344 17.359375 3.277344 17.601562 3.277344 17.839844 3.4375 18 3.675781 18L8.476562 18C8.71875 18 8.878906 17.839844 8.878906 17.601562 8.878906 17.359375 8.71875 17.199219 8.476562 17.199219zM11.398438 8.679688C11.476562 8.761719 11.558594 8.800781 11.675781 8.800781 11.796875 8.800781 11.917969 8.761719 11.957031 8.640625L13.957031 6.242188C14.117188 6.082031 14.078125 5.839844 13.917969 5.679688 13.757812 5.519531 13.515625 5.5625 13.355469 5.722656L11.636719 7.800781 11.15625 7.320312C10.996094 7.160156 10.757812 7.160156 10.597656 7.320312 10.4375 7.480469 10.4375 7.722656 10.597656 7.882812zM11.957031 13.441406L13.957031 11.039062C14.117188 10.882812 14.078125 10.640625 13.917969 10.480469 13.757812 10.320312 13.515625 10.359375 13.355469 10.519531L11.636719 12.601562 11.15625 12.121094C10.996094 11.960938 10.757812 11.960938 10.597656 12.121094 10.4375 12.28125 10.4375 12.519531 10.597656 12.679688L11.398438 13.480469C11.476562 13.5625 11.558594 13.601562 11.675781 13.601562 11.796875 13.601562 11.917969 13.5625 11.957031 13.441406zM11.957031 13.441406"/>
</svg>

<svg xmlns="http://www.w3.org/2000/svg" width="32" height="32" viewBox="0 0 24 24">
    <path d="M23.555 2.602l-.438-.32a.854.854 0 0 0-1.242.16l-.672.878-.047-.039c-.12-.078-.199-.078-.32-.078s-.2.078-.281.156l-.149.204-1.449-.36c-.121-.043-.32.04-.398.156l-.883 1.176v-.512a.304.304 0 0 0-.016-.132.317.317 0 0 0-.082-.145c-.008-.008-.012-.016-.02-.023L13.958.12l-.023-.023A.387.387 0 0 0 13.657 0H.476C.238 0 .078.16.078.402v23.2c0 .238.16.398.399.398h16.8c.239 0 .399-.16.399-.398v-10.82l5.558-7.34c.121-.16.082-.442-.078-.56l-.093-.077.695-.965c.277-.399.199-.957-.203-1.238zm-4.559 1.441l.906.21-2.226 3.024V5.81zm-4.2 11.039l-1.237-.84.488-.664 1.18.934zm.915-1.21l-1.191-.938.46-.625 1.223.914zm-2.504 1.105l1.008.757-1.38.946-.148-.114zm3.477-2.391l-1.227-.922.477-.648 1.25.914zm.98-1.297l-1.258-.918.477-.644 1.273.914zm-1.348-7.687h-2.238V1.363zm.559 19.597H.879V.801h12.398V4c0 .242.16.402.399.402h3.199v1.2l-.719.96c-.12.16-.078.438.082.56a.57.57 0 0 0 .239.077c.12 0 .238-.039.28-.156l.118-.164v1.48l-4.238 5.723c0 .04-.04.078-.04.117l-.8 2.403c-.04.152.035.308.148.425l-.226.332c-.121.2-.082.442.117.563.082.039.16.078.242.078.117 0 .238-.04.32-.2l.196-.284.004.004c.078.039.16.082.238.082.082 0 .16-.04.2-.04l2.081-1.44.031-.036.008-.004c.04 0 .04-.043.082-.082l1.637-2.164zm1.832-13.133l-1.36-.964 3.61-4.899 1.36 1.078zm4.328-6.703l-.66.895-.555-.446.657-.89c.039-.04.078-.04.12 0l.438.32c.043.04.043.078 0 .121zm0 0"/>
    <path d="M8.477 7.602H3.676c-.239 0-.399.16-.399.398 0 .242.16.402.399.402h4.8c.243 0 .403-.16.403-.402 0-.238-.16-.398-.402-.398zm0 0M8.477 12.402H3.676c-.239 0-.399.16-.399.399 0 .238.16.398.399.398h4.8c.243 0 .403-.16.403-.398 0-.239-.16-.399-.402-.399zm0 0M8.477 17.2H3.676c-.239 0-.399.16-.399.402 0 .238.16.398.399.398h4.8c.243 0 .403-.16.403-.398 0-.243-.16-.403-.402-.403zm0 0M11.398 8.68c.079.082.16.12.278.12.12 0 .242-.038.281-.16l2-2.398c.16-.16.121-.402-.039-.562-.16-.16-.402-.117-.563.043L11.637 7.8l-.48-.48a.385.385 0 0 0-.56 0 .39.39 0 0 0 0 .562zm0 0M11.957 13.441l2-2.402c.16-.156.121-.398-.039-.559-.16-.16-.402-.12-.563.04l-1.718 2.082-.48-.48a.385.385 0 0 0-.56 0 .385.385 0 0 0 0 .558l.801.8c.079.082.16.122.278.122.12 0 .242-.04.281-.16zm0 0"/>
</svg>
